kora/panel/16/livewallpaper-indicator.svg

<svg xmlns="http://www.w3.org/2000/svg" width="16" height="16" version="1">
 <defs>
  <style id="current-color-scheme" type="text/css">
   .ColorScheme-Text { color:#dfdfdf; } .ColorScheme-Highlight { color:#4285f4; }
  </style>
 </defs>
 <path style="fill:currentColor" class="ColorScheme-Text" d="M 0.8008,1 C 0.3576,1 0,1.3624 0,1.8125 V 12.187 C 0,12.638 0.39735,12.817 0.8008,13 H 3 V 14.187 C 3,14.638 3.3723,15 3.834,15 H 12.166 C 12.628,15 13,14.638 13,14.187 V 13 H 15.199 C 15.642,13 16,12.638 16,12.187 V 1.8125 C 16,1.3624 15.642,1 15.199,1 Z M 1,2 H 15 V 12 H 1 Z M 7,3 C 6.4477,3 6,3.4477 6,4 6,4.5523 6.4477,5 7,5 7.5523,5 8,4.5523 8,4 8,3.4477 7.5523,3 7,3 Z M 12,3 C 10.895,3 10,3.8954 10,5 10,6.1046 10.895,7 12,7 13.105,7 14,6.1046 14,5 14,3.8954 13.105,3 12,3 Z M 3.5,6 C 2.6716,6 2,6.6716 2,7.5 2,8.3284 2.6716,9 3.5,9 4.3284,9 5,8.3284 5,7.5 5,6.6716 4.3284,6 3.5,6 Z M 12.465,8.4 C 12.203,8.4184 11.999,8.637 12,8.9 12,9.1761 12.224,9.4 12.5,9.4 12.776,9.4 13,9.1761 13,8.9 13,8.6239 12.776,8.4 12.5,8.4 12.488,8.3996 12.477,8.3996 12.465,8.4 Z M 9,9 C 8.4477,9 8,9.4477 8,10 8,10.552 8.4477,11 9,11 9.5523,11 10,10.552 10,10 10,9.4477 9.5523,9 9,9 Z"/>
</svg>

<svg clip-rule="evenodd" fill-rule="evenodd" stroke-linejoin="round" stroke-miterlimit="2" viewBox="0 0 16 16" xmlns="http://www.w3.org/2000/svg">
 <defs>
  <style id="current-color-scheme" type="text/css">
   .ColorScheme-Text { color:#dfdfdf; } .ColorScheme-Highlight { color:#4285f4; } .ColorScheme-NeutralText { color:#ff9800; } .ColorScheme-PositiveText { color:#4caf50; } .ColorScheme-NegativeText { color:#f44336; }
  </style>
 </defs>
 <path style="fill:currentColor" class="ColorScheme-Text" d="m5.184 13.69v2.31h5.632v-2.31zm-3.184-13.69c-2 0-2 2-2 2v9s0 2 2 2h12s2 0 2-2v-9s0-2-2-2zm-1.232 1.076v10.848h14.464v-10.848h-14.464zm8.232 7.924c-.552 0-1 .448-1 1s.448 1 1 1 1-.448 1-1-.448-1-1-1zm3.465-.6c-.262.018-.466.237-.465.5 0 .276.224.5.5.5s.5-.224.5-.5-.224-.5-.5-.5zm-8.965-2.4c-.828 0-1.5.672-1.5 1.5s.672 1.5 1.5 1.5 1.5-.672 1.5-1.5-.672-1.5-1.5-1.5zm8.5-3c-1.105 0-2 .895-2 2s.895 2 2 2 2-.895 2-2-.895-2-2-2zm-5 0c-.552 0-1 .448-1 1s.448 1 1 1 1-.448 1-1-.448-1-1-1z" />
</svg>
